build/Karasa-Jaga/scalable/devices/input-tablet-symbolic.svg

<svg height="16" width="16" xmlns="http://www.w3.org/2000/svg"><g fill="#bebebe" transform="matrix(.92998818 0 0 .92998818 .560093 .560095)"><path d="m1.956613.42781659c-.5330324.00012033-.924551.42799855-.95986047.95985991l-.83410106 12.5639345c-.0353094.53186.43400213.872701.95986043.959859 4.5332728.751368 9.0995011 1.008397 13.7500921 0 .520927-.112954 1.007801-.428646.96381-.959859l-1.040672-12.5666154c-.043991-.53121366-.430778-.95998017-.96381-.95985983zm4.7106479.56445925 2.7452345-.046875c.088958-.00152.1619516.072985.1619516.16195156v1.3943645c0 .088967-.073.1604328-.1619516.1619517l-2.7452345.046875c-.088958.0015189-.1619516-.072985-.1619516-.1619517v-1.3943645c0-.088967.073-.16043276.1619516-.16195156zm-4.273691 2.25402176 10.8175051.1223191.978172 9.3387303h-12.4110282z"/><path d="m11.661592 11.609728.521448.361066c.135322-.05001.243845-.189383.263057-.290717l-.372664-.445767c-.07836.168225-.145069.344983-.411841.375418z" fill-rule="evenodd"/><path d="m5.0985699 5.0475684-.1839901-.1646854" stroke="#fff" stroke-linecap="round" stroke-width=".098965"/><path d="m4.1588357 3.9964105c-.2489587.032682-.02447.7853454 1.0316354 1.7695751l6.0487469 5.6539984c.353776-.02435.526852-.332855.610088-.516663l-5.7329019-5.6555825c-1.5110783-1.2810445-1.4838744-1.3135128-1.9575684-1.251328z" fill-rule="evenodd"/></g></svg>

<?xml version="1.0" encoding="UTF-8" standalone="no"?>
<!-- Created with Inkscape (http://www.inkscape.org/) -->

<svg
   xmlns:dc="http://purl.org/dc/elements/1.1/"
   xmlns:cc="http://creativecommons.org/ns#"
   xmlns:rdf="http://www.w3.org/1999/02/22-rdf-syntax-ns#"
   xmlns:svg="http://www.w3.org/2000/svg"
   xmlns="http://www.w3.org/2000/svg"
   xmlns:xlink="http://www.w3.org/1999/xlink"
   xmlns:sodipodi="http://sodipodi.sourceforge.net/DTD/sodipodi-0.dtd"
   xmlns:inkscape="http://www.inkscape.org/namespaces/inkscape"
   id="svg7384"
   height="16"
   width="16"
   version="1.1"
   inkscape:version="0.92.2 (unknown)"
   sodipodi:docname="input-tablet-symbolic.svg">
  <defs
     id="defs9">
    <linearGradient
       id="linearGradient4466">
      <stop
         style="stop-color:#bebebe;stop-opacity:1;"
         offset="0"
         id="stop4468" />
      <stop
         id="stop4474"
         offset="0.50676125"
         style="stop-color:#bebebe;stop-opacity:0.34684685" />
      <stop
         style="stop-color:#bebebe;stop-opacity:0"
         offset="1"
         id="stop4470" />
    </linearGradient>
    <linearGradient
       inkscape:collect="always"
       xlink:href="#linearGradient4978"
       id="linearGradient4737"
       gradientUnits="userSpaceOnUse"
       gradientTransform="matrix(7.4689416,0,0,7.4689416,149.65473,920.87135)"
       x1="7.6248965"
       y1="16.341463"
       x2="9.2380123"
       y2="3.3019347" />
    <linearGradient
       id="linearGradient4978">
      <stop
         style="stop-color:#ffffff;stop-opacity:1;"
         offset="0"
         id="stop4980" />
      <stop
         style="stop-color:#ffffff;stop-opacity:0.74374998;"
         offset="1"
         id="stop4982" />
    </linearGradient>
  </defs>
  <sodipodi:namedview
     pagecolor="#ffffff"
     bordercolor="#666666"
     borderopacity="1"
     objecttolerance="10"
     gridtolerance="10"
     guidetolerance="10"
     inkscape:pageopacity="0"
     inkscape:pageshadow="2"
     inkscape:window-width="1366"
     inkscape:window-height="706"
     id="namedview7"
     showgrid="false"
     inkscape:zoom="11.313709"
     inkscape:cx="-7.3247305"
     inkscape:cy="4.8749335"
     inkscape:window-x="0"
     inkscape:window-y="0"
     inkscape:window-maximized="1"
     inkscape:current-layer="svg7384"
     showguides="true"
     inkscape:guide-bbox="true" />
  <title
     id="title9167">Gnome Symbolic Icon Theme</title>
  <metadata
     id="metadata90">
    <rdf:RDF>
      <cc:Work
         rdf:about="">
        <dc:format>image/svg+xml</dc:format>
        <dc:type
           rdf:resource="http://purl.org/dc/dcmitype/StillImage" />
        <dc:title>Gnome Symbolic Icon Theme</dc:title>
      </cc:Work>
    </rdf:RDF>
  </metadata>
  <g
     id="g916"
     transform="matrix(0.92998818,0,0,0.92998818,0.56009331,0.56009461)">
    <g
       style="display:inline;fill:#bebebe;fill-opacity:1;enable-background:new"
       transform="matrix(0.2214074,0,0,0.2214074,105.63699,0.36437089)"
       id="Livello_1" />
    <g
       style="display:inline;fill:#bebebe;fill-opacity:1;enable-background:new"
       transform="matrix(0.2214074,0,0,0.2214074,118.03581,4.2144906)"
       id="g3290" />
    <g
       style="display:inline;fill:#bebebe;fill-opacity:1;enable-background:new"
       transform="matrix(0.04331993,0,0,0.04331993,96.371165,-4.7484041)"
       id="g7148" />
    <g
       style="display:inline;fill:#bebebe;fill-opacity:1;enable-background:new"
       transform="matrix(0.02952098,0,0,0.02952098,90.756054,14.422739)"
       id="g7555" />
    <g
       style="display:inline;fill:#bebebe;fill-opacity:1;enable-background:new"
       transform="matrix(0.23616787,0,0,0.23616787,105.04634,-0.08386261)"
       id="g9283" />
    <path
       sodipodi:nodetypes="ssssssssssssssssssccccc"
       id="rect2478"
       d="M 1.956613,0.42781659 C 1.4235806,0.42793692 1.032062,0.85581514 0.99675253,1.3876765 L 0.16265147,13.951611 c -0.0353094,0.53186 0.43400213,0.872701 0.95986043,0.959859 4.5332728,0.751368 9.0995011,1.008397 13.7500921,0 0.520927,-0.112954 1.007801,-0.428646 0.96381,-0.959859 L 14.795742,1.3849956 C 14.751751,0.85378194 14.364964,0.42501543 13.831932,0.42513577 Z m 4.7106479,0.56445925 2.7452345,-0.046875 c 0.088958,-0.00152 0.1619516,0.072985 0.1619516,0.16195156 v 1.3943645 c 0,0.088967 -0.073,0.1604328 -0.1619516,0.1619517 L 6.6672609,2.7105436 C 6.5783029,2.7120625 6.5053093,2.6375586 6.5053093,2.5485919 V 1.1542274 c 0,-0.088967 0.073,-0.16043276 0.1619516,-0.16195156 z M 2.3935699,3.2462976 13.211075,3.3686167 14.189247,12.707347 H 1.7782188 Z"
       style="display:inline;overflow:visible;visibility:visible;fill:#bebebe;fill-opacity:1;fill-rule:nonzero;stroke:none;stroke-width:1;marker:none;enable-background:accumulate"
       inkscape:connector-curvature="0" />
    <path
       d="m 11.661592,11.609728 0.521448,0.361066 c 0.135322,-0.05001 0.243845,-0.189383 0.263057,-0.290717 L 12.073433,11.23431 c -0.07836,0.168225 -0.145069,0.344983 -0.411841,0.375418 z"
       id="path3511"
       sodipodi:nodetypes="ccccc"
       style="display:inline;fill:#bebebe;fill-opacity:1;fill-rule:evenodd;stroke:none;stroke-width:1.06769061;enable-background:new"
       inkscape:connector-curvature="0" />
    <path
       d="M 5.0985699,5.0475684 4.9145798,4.882883"
       id="path3803"
       style="display:inline;fill:#bebebe;fill-opacity:1;stroke:#ffffff;stroke-width:0.09896538px;stroke-linecap:round;stroke-linejoin:miter;stroke-opacity:1;enable-background:new"
       inkscape:connector-curvature="0" />
    <path
       d="m 4.1588357,3.9964105 c -0.2489587,0.032682 -0.02447,0.7853454 1.0316354,1.7695751 l 6.0487469,5.6539984 c 0.353776,-0.02435 0.526852,-0.332855 0.610088,-0.516663 L 6.1164041,5.2477385 C 4.6053258,3.966694 4.6325297,3.9342257 4.1588357,3.9964105 Z"
       id="path4405"
       sodipodi:nodetypes="cccccs"
       style="display:inline;fill:#bebebe;fill-opacity:1;fill-rule:evenodd;stroke:none;stroke-width:1.22228277;enable-background:new"
       inkscape:connector-curvature="0" />
    <g
       style="display:inline;fill:#bebebe;fill-opacity:1;enable-background:new"
       id="g5467"
       transform="matrix(0.2214074,0,0,0.2214074,19.927004,-9.044346)">
      <g
         style="fill:#bebebe;fill-opacity:1"
         transform="matrix(0.3790056,0,0,0.3790056,153.25428,-31.748709)"
         id="g3516">
        <g
           style="fill:#bebebe;fill-opacity:1"
           transform="matrix(0.8639767,0,0,0.8639767,59.34485,101.94629)"
           id="g3520" />
      </g>
    </g>
    <g
       style="display:inline;fill:#bebebe;fill-opacity:1;enable-background:new"
       id="g5436"
       transform="matrix(0.2214074,0,0,0.2214074,19.927004,-9.044346)">
      <g
         style="fill:#bebebe;fill-opacity:1"
         transform="matrix(0.1523516,0,0,0.1448817,144.07609,78.795196)"
         id="g4436">
        <g
           style="fill:#bebebe;fill-opacity:1"
           transform="matrix(0.8639767,0,0,0.8639767,59.34485,101.94629)"
           id="g4440" />
      </g>
    </g>
    <g
       style="display:inline;fill:#bebebe;fill-opacity:1;enable-background:new"
       id="g5451"
       transform="matrix(0.2214074,0,0,0.2214074,19.927004,-9.044346)">
      <g
         style="fill:#bebebe;fill-opacity:1"
         transform="matrix(0.2280483,0,0,0.2280483,147.13615,35.966906)"
         id="g4958">
        <g
           style="fill:#bebebe;fill-opacity:1"
           transform="matrix(0.8639767,0,0,0.8639767,59.34485,101.94629)"
           id="g4962" />
      </g>
    </g>
    <g
       style="display:inline;fill:#bebebe;fill-opacity:1;enable-background:new"
       id="g5427"
       transform="matrix(0.2214074,0,0,0.2214074,19.927004,-9.044346)">
      <g
         style="fill:#bebebe;fill-opacity:1"
         transform="translate(-1.5938545,0.1848534)"
         id="g5420" />
    </g>
  </g>
</svg>
